svg/fluentui-system-icons/ic_fluent_clock_toolbox_24_regular.svg

<svg width="24" height="24" viewBox="0 0 24 24" fill="none" xmlns="http://www.w3.org/2000/svg">
<path d="M4.49976 11C4.49976 6.30558 8.30534 2.5 12.9998 2.5C17.6942 2.5 21.4998 6.30558 21.4998 11C21.4998 15.6944 17.6943 19.4999 13 19.5V21C18.5227 20.9999 22.9998 16.5228 22.9998 11C22.9998 5.47715 18.5226 1 12.9998 1C7.47691 1 2.99976 5.47715 2.99976 11C2.99976 11.206 3.00599 11.4106 3.01827 11.6136C3.43029 11.2792 3.94092 11.0616 4.49976 11.0112L4.49976 11ZM12.9929 5.64827C12.9432 5.28233 12.6293 5 12.2498 5C11.8358 5 11.4998 5.336 11.4998 5.75V11.75L11.5066 11.8517C11.5563 12.2177 11.8703 12.5 12.2498 12.5H16.2498L16.3515 12.4931C16.7174 12.4435 16.9998 12.1295 16.9998 11.75C16.9998 11.336 16.6638 11 16.2498 11H12.9998V5.75L12.9929 5.64827ZM8.25 13.5H4.75C4.61193 13.5 4.5 13.6119 4.5 13.75V15H8.5V13.75C8.5 13.6119 8.38807 13.5 8.25 13.5ZM3 15V13.75C3 12.7835 3.7835 12 4.75 12H8.25C9.2165 12 10 12.7835 10 13.75V15H10.5C11.3284 15 12 15.6716 12 16.5V18H10V17.5C10 17.2239 9.77614 17 9.5 17C9.22386 17 9 17.2239 9 17.5V18H4V17.5C4 17.2239 3.77614 17 3.5 17C3.22386 17 3 17.2239 3 17.5V18H1V16.5C1 15.6716 1.67157 15 2.5 15H3ZM9 19.5V19H4V19.5C4 19.7761 3.77614 20 3.5 20C3.22386 20 3 19.7761 3 19.5V19H1V21.5C1 22.3284 1.67157 23 2.5 23H10.5C11.3284 23 12 22.3284 12 21.5V19H10V19.5C10 19.7761 9.77614 20 9.5 20C9.22386 20 9 19.7761 9 19.5Z" fill="#212121"/>
</svg>

<svg xmlns="http://www.w3.org/2000/svg" width="24" height="24"><path d="M4.5 11a8.5 8.5 0 1 1 8.5 8.5V21c5.523 0 10-4.477 10-10S18.523 1 13 1 3 5.477 3 11c0 .206.006.41.018.614A2.737 2.737 0 0 1 4.5 11.01V11Zm8.493-5.352a.75.75 0 0 0-1.493.102v6l.007.102a.75.75 0 0 0 .743.648h4l.102-.007A.75.75 0 0 0 16.25 11H13V5.75l-.007-.102ZM8.25 13.5h-3.5a.25.25 0 0 0-.25.25V15h4v-1.25a.25.25 0 0 0-.25-.25ZM3 15v-1.25c0-.966.784-1.75 1.75-1.75h3.5c.966 0 1.75.784 1.75 1.75V15h.5a1.5 1.5 0 0 1 1.5 1.5V18h-2v-.5a.5.5 0 0 0-1 0v.5H4v-.5a.5.5 0 0 0-1 0v.5H1v-1.5A1.5 1.5 0 0 1 2.5 15H3Zm6 4.5V19H4v.5a.5.5 0 0 1-1 0V19H1v2.5A1.5 1.5 0 0 0 2.5 23h8a1.5 1.5 0 0 0 1.5-1.5V19h-2v.5a.5.5 0 0 1-1 0Z"/></svg>
